!!!OTL: A Sailor Courted
!!!ONM: 49.
**kern
*clefG2
*k[b-e-a-]
*E-:
*M3/4
*MM108
{8B-
=1
8e-
8e-
4c
8B-
8B-
=2
8e-
8e-
(8g
8a-)
8b-}
{8b-
=3
8cc
8b-
4f
8f
16e-
16f
=4
8g
8e-
4.B-}
{8B-
=5
8e-
8e-
4c
8B-
8B-
=6
8e-
8e-
4e-
8g}
{8b-
=7
8cc
8b-
4g
8f
8f
=8
16e-
8.e-
4e-
8r}
{8e-
=9
8g
8b-
8dd
4cc
8b-
=10
8ee-
8cc
8dd
4g}
{8cc
=11
8b-
8g
8f
4f
(16e-
16f)
=12
8g
8e-
4B-}
{(8.B-
16d)
=13
8e-
8e-
8c
4B-
8B-
=14
8e-
8e-
4e-}
{(16g
16b-)
8cc
=15
8b-
8g
4.f
16g
16f
=16
8e-
8e-
4.e-}
==
*-
!!!CNT: Folksongs of Maritime Canada
!!!MRD: 1928///-1932///
!!!OCL: Helen Creighton
!!!YOR: Songs and Ballads from Nova Scotia
!!!PPR: J.M. Dent & Sons, Limited
!!!PPP: Toronto, Canada
!!!PDT: 1932///
!!!reprint: Dover Publications, 1992: ISBN 0-486-21703-5
!!!ENC1: Craig Stuart Sapp (music and bibliographic data)                       
!!!ENC2: Marcus Pearce (phrase markings and key designations)                   
!!!ENC3: Darrell Conklin (phrase markings and key designations)   
!!!END: 2002/04/10/
!!!EEV: 2004/06/05
!!!MPN: Mr. Ben Henneberry
!!!PPG: 99
!!!EFL: 50/152
!!!ARE: Canada; Nova Scotia
!!!verses: 5
!!!VTS: 3846944029
